apps/trade/public/tokens/arb.svg

<svg width="24" height="24" viewBox="0 0 24 24" fill="none" xmlns="http://www.w3.org/2000/svg">
<rect width="24" height="24" rx="12" fill="#213147"/>
<g clip-path="url(#clip0_10046_64440)">
<path d="M4.6272 8.47199V15.528C4.6272 15.9816 4.8648 16.392 5.2608 16.6224L11.3736 20.1504C11.7624 20.3736 12.2448 20.3736 12.6336 20.1504L18.7464 16.6224C19.1352 16.3992 19.38 15.9816 19.38 15.528V8.47199C19.38 8.01839 19.1424 7.60799 18.7464 7.37759L12.6336 3.84959C12.2448 3.62639 11.7624 3.62639 11.3736 3.84959L5.2608 7.37759C4.872 7.60079 4.6344 8.01839 4.6344 8.47199H4.6272Z" fill="#213147"/>
<path d="M13.3346 13.368L12.4634 15.7584C12.4418 15.8232 12.4418 15.8952 12.4634 15.9672L13.961 20.0784L15.6962 19.0776L13.6154 13.368C13.565 13.2384 13.385 13.2384 13.3346 13.368Z" fill="#12AAFF"/>
<path d="M15.0823 9.35031C15.0319 9.22071 14.8519 9.22071 14.8015 9.35031L13.9303 11.7407C13.9087 11.8055 13.9087 11.8775 13.9303 11.9495L16.3855 18.6815L18.1207 17.6807L15.0823 9.35751V9.35031Z" fill="#12AAFF"/>
<path d="M12 4.116C12.0432 4.116 12.0864 4.1304 12.1224 4.152L18.732 7.968C18.8112 8.0112 18.8544 8.0976 18.8544 8.184V15.816C18.8544 15.9024 18.804 15.9888 18.732 16.032L12.1224 19.848C12.0864 19.8696 12.0432 19.884 12 19.884C11.9568 19.884 11.9136 19.8696 11.8776 19.848L5.268 16.032C5.1888 15.9888 5.1456 15.9024 5.1456 15.816V8.1768C5.1456 8.0904 5.196 8.004 5.268 7.9608L11.8776 4.1448C11.9136 4.1232 11.9568 4.1088 12 4.1088V4.116ZM12 3C11.7624 3 11.532 3.0576 11.316 3.18L4.7064 6.996C4.2816 7.2408 4.0224 7.6872 4.0224 8.1768V15.8088C4.0224 16.2984 4.2816 16.7448 4.7064 16.9896L11.316 20.8056C11.5248 20.928 11.7624 20.9856 12 20.9856C12.2376 20.9856 12.468 20.928 12.684 20.8056L19.2936 16.9896C19.7184 16.7448 19.9776 16.2984 19.9776 15.8088V8.1768C19.9776 7.6872 19.7184 7.2408 19.2936 6.996L12.6768 3.18C12.468 3.0576 12.2304 3 11.9928 3H12Z" fill="#9DCCED"/>
<path d="M7.62244 18.6888L8.23444 17.0184L9.45844 18.0336L8.31364 19.0848L7.62244 18.6888Z" fill="#213147"/>
<path d="M11.4384 7.63678H9.76081C9.63841 7.63678 9.52321 7.71598 9.48001 7.83118L5.88721 17.6808L7.62241 18.6816L11.5824 7.83118C11.6184 7.73038 11.5464 7.62958 11.4456 7.62958L11.4384 7.63678Z" fill="white"/>
<path d="M14.3752 7.63684H12.6976C12.5752 7.63684 12.46 7.71604 12.4168 7.83124L8.31281 19.0776L10.048 20.0784L14.512 7.83124C14.548 7.73044 14.476 7.62964 14.3752 7.62964V7.63684Z" fill="white"/>
</g>
<defs>
<clipPath id="clip0_10046_64440">
<rect width="18" height="18" fill="white" transform="translate(3 3)"/>
</clipPath>
</defs>
</svg>

<svg width="24" height="24" fill="none" xmlns="http://www.w3.org/2000/svg">
    <rect width="24" height="24" rx="12" fill="#213147"/>
    <g clip-path="url(#a)">
        <path d="M4.627 8.472v7.056c0 .454.238.864.634 1.094l6.113 3.528a1.27 1.27 0 0 0 1.26 0l6.112-3.528c.39-.223.634-.64.634-1.094V8.472c0-.454-.238-.864-.634-1.094L12.634 3.85a1.27 1.27 0 0 0-1.26 0L5.26 7.378c-.389.223-.627.64-.627 1.094h-.007Z" fill="#213147"/>
        <path d="m13.335 13.368-.872 2.39a.344.344 0 0 0 0 .21l1.498 4.11 1.735-1-2.08-5.71a.15.15 0 0 0-.281 0ZM15.082 9.35a.15.15 0 0 0-.28 0l-.872 2.39a.344.344 0 0 0 0 .21l2.456 6.732 1.735-1.001-3.039-8.323V9.35Z" fill="#12AAFF"/>
        <path d="M12 4.116c.043 0 .086.014.122.036l6.61 3.816c.08.043.122.13.122.216v7.632a.26.26 0 0 1-.122.216l-6.61 3.816a.243.243 0 0 1-.122.036.243.243 0 0 1-.122-.036l-6.61-3.816a.245.245 0 0 1-.122-.216v-7.64a.26.26 0 0 1 .122-.215l6.61-3.816A.243.243 0 0 1 12 4.109v.007ZM12 3a1.37 1.37 0 0 0-.684.18l-6.61 3.816a1.358 1.358 0 0 0-.684 1.18v7.633c0 .49.26.936.684 1.18l6.61 3.817c.209.122.446.18.684.18.238 0 .468-.058.684-.18l6.61-3.816c.424-.245.684-.692.684-1.181V8.177c0-.49-.26-.936-.684-1.181L12.677 3.18a1.35 1.35 0 0 0-.684-.18H12Z" fill="#9DCCED"/>
        <path d="m7.622 18.689.612-1.67 1.224 1.015-1.144 1.05-.692-.395Z" fill="#213147"/>
        <path d="M11.438 7.637H9.761a.304.304 0 0 0-.281.194l-3.593 9.85 1.735 1 3.96-10.85a.148.148 0 0 0-.136-.201l-.008.007ZM14.375 7.637h-1.677a.304.304 0 0 0-.281.194L8.313 19.078l1.735 1 4.464-12.247a.148.148 0 0 0-.137-.201v.007Z" fill="#fff"/>
    </g>
    <defs>
        <clipPath id="a">
            <path fill="#fff" d="M3 3h18v18H3z"/>
        </clipPath>
    </defs>
</svg>
